p 1 $ s "bd sd"

p 2 
    $ s "bd sd"
    # n "0 1"

-- Should be wrapped like this 
-- (deltaContext <col_start_in_buf> <row_in_buf> "pattern") all zero-based

p 1 $ s (deltaContext 9 0 "bd sd")

p 2 
    $ s (deltaContext 9 3 "bd sd hh")
    # n (deltaContext 9 4 "0 1")
