setcps (0.9)

p 1
    $ stack [
        swingBy (1/24) 4 $
        slow 1 $
        -- superimpose (slow 2 . sh (7/8) . (# bank "rolandtr606") . (|* gain 1.0) . (|* speed 1)) $
        superimpose (sh ("<1 5>"/"8") . (# s "hh@3 sd")) $
        struct "<[1 0 1 1] [~ 1 <1 0> ~]> [~ ~ 1 <1 0>]"
        $ s "bd:0" # bank "rolandtr808"
        # speed ("[1 4] [3 0.8]" |* "<1 0.8 1 0.5>")
        -- # silence
        ,
        swingBy (1/24) 4 $
        superimpose (slow 2 . (# bank "rolandtr808") . (# s "lt") . (|* gain 1.2)) $
        struct (inv "<[1 0 1 1] [~ 1 <1 0> ~]> [~ ~ 1 <1 0>]")
        $ s "cp" # bank "rolandtr909"
    ]
    -- # miverb_send "[<1 0> 0] 0 [1 0]"
    |* speed (sh (2) $ segment 16 $ range 1.1 0.7 $ slow 4 $ saw)
    -- # silence

p 2
    $ stack [
        slow 8 $
        n "119" # s "leg_kawaik4" # sustain 8
        # note ("<-10 -7>")
        # orbit 1
        ,
        swingBy (1/24) 4 $
        mask (slow 4 $ "0 <0 1>") $
        n (struct "1*8" $ fast 1.3 $ run 8 |+ 89 |* 9)
        # s "leg_dx200" # sustain 0.2
        # note (-7)
        # gain (segment 16 $ ribbon 0 1 $ fast 17 saw)
        |* gain 1.3
    ]
