setcps 1

p 1 
    $ slow 1
    $ superimpose (slow (7/8) . (|* speed (range 1 8 $ tri)))
    $ jux (rev . slow (5/4))
    $ s "lt*64 [ht hh]*64" # bank "rolandtr808"
    # legato 2 # tilt 0.5
    # begin (range 0 0.2 $ tri)
    -- # miverb_send 1
    # lp2_f (segment 128 $ rangex 200 18000 $ sine) # lp2_q 0.9
    -- # mu 200

p 2 $ silence
