-- 2026-05-12
setcps (0.8)

p 1
    -- $ jux rev
    $ stack [
        s "junglebreaks*4"
        # n 12
        # legato 1
        # speed (1/2)
        # begin (segment 4 $ ribbon 3 1 $ rand)
        # unit "c"
        ,
        sh (1/2) $
        s "junglebreaks*4"
        # n 14
        # legato 1
        # speed (1/2)
        # begin (segment 4 $ ribbon 2 1 $ rand)
        # unit "c"
        ,
        s "bd*4" # bank "rolandtr808"
    ]
