-- 2026-05-05
setcps (2/6)

p 1 
    $ stack [
        s "longs" # n 19
        # begin 0.6
        # legato 1
        # bpf 4000
        ,
        s "longs" # n 19
        # begin 0.5
        # legato 1
        ,
        s "longs" # n 19
        # begin 0.13
        # legato 1
        # bpf 400
    ]
