p 1 
    $ pace 8  
    -- $ reset "1(3,8) 1"
    $ s "[bd, <cr ~>] sd" 
    # bank "rolandtr808"
    # legato 1
    # mu 20
    # accelerate ("<1 -0.1 8>")
    # room 0.1 # size 0.1

p 2
    $ slow 2
    $ while "<0 1>" ((~>) (3/8))
    $ stack [
        struct "1(3,8) 1(5,8)"
        $ s "bd" # bank "rolandtr909"
        # mu 10
        ,
        struct "[~ 1] [~ 1*2]"
        $ s "sd" # bank "rolandtr909"
        # mu 10
    ]
    # legato 1
    -- # silence

p 3 
    $ jux (rev . (# bank "rolandtr909")) 
    $ stack [
        s (pace 16 "hh hh@3 oh hh oh@4") # bank "rolandtr808"
        # mu 10
        # legato 1
    ]

hush
